X: 3167
T: Bed Breaker, The
R: jig
M: 6/8
K: Gmajor
"G"D2GG2D|"C"E2G "D7"FGA|"G"B2GG2D|"C"EFG "D7"F2E|
"G"D2GG2D|"C"E2G FGA|"G"B2zG3|"D7"E2F"G"G3:|
"G"B2gf2g|"C"e3e2f|"G"gfed2B|"Am"A3"D7"ABA|
"G"G2B BAB|"Am"c2A"D7"d2c|"G"BAG"D7"A2F|1 "G"G3G2A:|2 "G"G3F3||
"Em"E3F3|G3A3|Beee2^d|e3e3|
"Em"E3F3|G3A3|"Bm"B2AG2F|G2FE2^D|
"Em"E3F3|G3A3|Beee2^d|e3e2f|"C"g2f gfe|"G"d2g"Em"B2d|"Am"cdcB2A|"G"G3G3||

